X:3670
L:1/4
M:4/4
K:Cmin
 z2 z G, | C2 D E | D2 C B, | C4 | z2 C"^*" D | E2 F G | F E2 D |{F} E4 | z2 z G | c2 c =B | 
 B2 =A A | G2 F G | A G F D | E G2 E | D G2 G, | C4 |]

